**kern	**kern
*staff2	*staff1
*clefF4	*clefG2
*k[]	*k[]
*M3/4	*M3/4
*C:	*C:
=	=
16BBB-LL	8r
16BBB-JJ	.
8r	16CLL 16E 16G
.	16CJJ 16E 16G
16BB-LL	8r
16BB-JJ	.
8r	16cLL 16e 16g
.	16cJJ 16e 16g
16B-LL	8r
16B-JJ	.
8r	16ccLL 16ee 16gg
.	16ccJJ 16ee 16gg
=64	=64
16ALL	8r
16AJJ	.
8r	16cc#LL 16ee 16gg
.	16cc#JJ 16ee 16gg
*clefG2	*
8ee'L 8gg'	8aa'L 8ccc#'
8dd'J 8ff'	8aa'J 8ddd'
4cc# 4ee	4aa 4eee
*clefF4	*
=65	=65
16AAA-LL	8r
16AAA-JJ	.
8r	16CLL 16D 16F
.	16CJJ 16D 16F
16AA-LL	8r
16AA-JJ	.
8r	16cLL 16d 16f
.	16cJJ 16d 16f
16A-LL	8r
16A-JJ	.
8r	16ccLL 16dd 16ff
.	16ccJJ 16dd 16ff
=66	=66
16GLL	8r
16GJJ	.
8r	16bLL 16dd 16ff
.	16bJJ 16dd 16ff
*clefG2	*
8g'L 8b' 8dd'	8gg'L 8ddd' 8fff'
8g'J 8cc' 8ee'	8gg'J 8ccc' 8eee'
4g 4dd 4ff	4gg 4bb 4ddd
*clefF4	*
=67	=67
16CCLL 16C	8r
16CCJJ 16C	.
8r	16cccLL 16eee
.	16cccJJ 16eee
16EELL 16E	8r
16EEJJ 16E	.
8r	16cccLL 16eee
.	16cccJJ 16eee
16GGLL 16G	8r
16GGJJ 16G	.
8r	16cccLL 16eee
.	16cccJJ 16eee
=68	=68
8C 8c	16r
.	16eeeLL
8r	16ccc
.	16ggJJ
4r	16eeLL
.	16cc
.	16g
.	16eJJ
8r	8cL
8EE 8E	8cJ 8g#
=69	=69
16FFLL 16F	8r
16FFJJ 16F	.
8r	16cLL 16d 16a
.	16cJJ 16d 16a
16GGLL 16G	8r
16GGJJ 16G	.
8r	16cLL 16d 16g
.	16cJJ 16d 16g
16GGGLL 16GG	8r
16GGGJJ 16GG	.
8r	16BLL 16d 16g
.	16BJJ 16d 16g
=70	=70
8CC 8C	16r
.	16cLL
8r	16e
.	16gJJ
4r	16ccLL
.	16ee
.	16gg
.	16bbJJ
8r	8ccc
8CC	8r
=71||	=71||
*-	*-
